Collapse/img/baseCard_icon_add.svg

<svg width="16" height="16" viewBox="0 0 16 16" fill="none" xmlns="http://www.w3.org/2000/svg">
<path d="M8.00049 0.5C3.86799 0.5 0.500488 3.8675 0.500488 8C0.500488 12.1325 3.86799 15.5 8.00049 15.5C12.133 15.5 15.5005 12.1325 15.5005 8C15.5005 3.8675 12.133 0.5 8.00049 0.5ZM11.0005 8.5625H8.56299V11C8.56299 11.3075 8.30799 11.5625 8.00049 11.5625C7.69299 11.5625 7.43799 11.3075 7.43799 11V8.5625H5.00049C4.69299 8.5625 4.43799 8.3075 4.43799 8C4.43799 7.6925 4.69299 7.4375 5.00049 7.4375H7.43799V5C7.43799 4.6925 7.69299 4.4375 8.00049 4.4375C8.30799 4.4375 8.56299 4.6925 8.56299 5V7.4375H11.0005C11.308 7.4375 11.563 7.6925 11.563 8C11.563 8.3075 11.308 8.5625 11.0005 8.5625Z" fill="#565D73"/>
</svg>

<svg width="16" height="16" fill="none" xmlns="http://www.w3.org/2000/svg"><path d="M8 .5C3.868.5.5 3.868.5 8c0 4.133 3.368 7.5 7.5 7.5 4.133 0 7.5-3.367 7.5-7.5S12.134.5 8 .5zm3 8.063H8.564V11a.567.567 0 01-.563.563.567.567 0 01-.562-.563V8.562H5A.567.567 0 014.438 8c0-.308.255-.563.562-.563h2.438V5c0-.308.255-.563.562-.563.308 0 .563.255.563.563v2.438h2.438c.307 0 .562.255.562.562a.567.567 0 01-.563.563z" fill="#565D73"/></svg>
